X: 26091
T: McDonnell-Garvey, The
R: hornpipe
M: 4/4
K: Gmajor
|:(3def|gd (3Bcd BGDC|B,CA,B, G,2 gf|egdB cAag|fd (3^cde d2 (3def|
gd (3Bcd BGDB,|CDA,B, (3G,B,D GB|ceag fdcd|ADBA G2:|
|:ga|(3bgd gb (3afc ab|(3geB ga (3fdB AF|EBGE FdAf|(3A^ce ag fd=cA|
(3Bcd cd BGDB,|(3CDF Ac dfab|gBde cEAG|FDBA G2:|
|:dc|BG (3DGB ADBA|GdBg ef (3gfe|dgBd cEAG|FAfe dfga|
bBba gBgf|eage dBDd|(3efg de cAEG|FDBA G2:|

